assets/symbols/mulberry/thick.svg

<svg height="850.394" viewBox="0 0 850.394 850.394" width="850.394" xmlns="http://www.w3.org/2000/svg"><path d="m669.19 600.61v.75c-.131 13.71-24.061 24.81-53.551 24.81-29.58 0-53.55-11.16-53.55-24.92v-430.33l.18-.03c2.19 12.82 25.25 22.92 53.37 22.92 29.03 0 52.67-10.76 53.521-24.18h.03z" fill="#ef947d"/><path d="m461.51 172.25c0 .51-.02 1.01-.069 1.51-2.381 26.93-68.061 48.52-148.73 48.52-78.2 0-142.31-20.28-148.35-46.05-.3-1.31-.46-2.64-.46-3.98 0-27.63 66.62-50.03 148.81-50.03 82.169 0 148.799 22.4 148.799 50.03zm207.68-3.37c0 .25-.011.5-.03.75-.851 13.42-24.49 24.18-53.521 24.18-28.12 0-51.18-10.1-53.37-22.92-.119-.66-.18-1.33-.18-2.01 0-13.77 23.98-24.93 53.55-24.93 29.571 0 53.551 11.16 53.551 24.93z" fill="#ffeec8"/><path d="m461.53 587.08-.011 1.26h-.01c0 27.63-66.63 50.021-148.8 50.021-82.19 0-148.81-22.391-148.81-50.021v-411.99l.46-.12c6.04 25.77 70.15 46.05 148.35 46.05 80.67 0 146.35-21.59 148.73-48.52l.09.01v413.31z" fill="#ef947d"/><g fill="none"><g stroke="#231f20" stroke-width="21"><path d="m164.36 176.23c-.3-1.31-.46-2.64-.46-3.98 0-27.63 66.62-50.03 148.81-50.03 82.17 0 148.8 22.4 148.8 50.03 0 .51-.02 1.01-.069 1.51-2.381 26.93-68.061 48.52-148.73 48.52-78.201 0-142.311-20.28-148.351-46.05z"/><path d="m461.51 588.34c0 27.63-66.63 50.021-148.8 50.021-82.19 0-148.81-22.391-148.81-50.021v-411.99m297.63-2.58v413.31l-.01 1.26v.23m100.75-417.68c-.119-.66-.18-1.33-.18-2.01 0-13.77 23.98-24.93 53.55-24.93s53.551 11.16 53.551 24.93c0 .25-.011.5-.03.75-.851 13.42-24.49 24.18-53.521 24.18-28.12 0-51.18-10.1-53.37-22.92z"/><path d="m669.19 601.36c-.131 13.71-24.061 24.81-53.551 24.81-29.58 0-53.55-11.16-53.55-24.92v-430.33m107.101-1.29v431.73"/></g><path d="m0 0h850.394v850.394h-850.394z"/><path d="m456 694.999v42.599h-273.323v-70.599m25.712 44v26m35.998-26v24m43.712-24v22m43.711-22v24m41.14-24v26m41.14-26v22" stroke="#231f20" stroke-width="15.874"/><path d="m143.623 702.523 40.229-35.524 40.221 35.587" stroke="#231f20" stroke-linecap="round" stroke-linejoin="round" stroke-width="11.597"/></g></svg>

<svg xmlns="http://www.w3.org/2000/svg" width="850.394" height="850.394" viewBox="0 0 850.394 850.394" overflow="visible"><path d="M669.19 600.61v.75c-.131 13.71-24.061 24.81-53.551 24.81-29.58 0-53.55-11.16-53.55-24.92V170.92l.18-.03c2.19 12.82 25.25 22.92 53.37 22.92 29.03 0 52.67-10.76 53.521-24.18h.03v430.98z" fill="#ef947d"/><path d="M461.51 172.25c0 .51-.02 1.01-.069 1.51-2.381 26.93-68.061 48.52-148.73 48.52-78.2 0-142.31-20.28-148.35-46.05-.3-1.31-.46-2.64-.46-3.98 0-27.63 66.62-50.03 148.81-50.03 82.169 0 148.799 22.4 148.799 50.03zM669.19 168.88c0 .25-.011.5-.03.75-.851 13.42-24.49 24.18-53.521 24.18-28.12 0-51.18-10.1-53.37-22.92-.119-.66-.18-1.33-.18-2.01 0-13.77 23.98-24.93 53.55-24.93 29.571 0 53.551 11.16 53.551 24.93z" fill="#ffeec8"/><path d="M461.53 587.08l-.011 1.26h-.01c0 27.63-66.63 50.021-148.8 50.021-82.19 0-148.81-22.391-148.81-50.021V176.35l.46-.12c6.04 25.77 70.15 46.05 148.35 46.05 80.67 0 146.35-21.59 148.73-48.52l.09.01v413.31z" fill="#ef947d"/><g fill="none" stroke="#231f20" stroke-width="21"><path d="M164.36 176.23c-.3-1.31-.46-2.64-.46-3.98 0-27.63 66.62-50.03 148.81-50.03 82.17 0 148.8 22.4 148.8 50.03 0 .51-.02 1.01-.069 1.51-2.381 26.93-68.061 48.52-148.73 48.52-78.201 0-142.311-20.28-148.351-46.05z"/><path d="M461.51 588.34c0 27.63-66.63 50.021-148.8 50.021-82.19 0-148.81-22.391-148.81-50.021V176.35M461.53 173.77v413.31l-.01 1.26v.23M562.27 170.89c-.119-.66-.18-1.33-.18-2.01 0-13.77 23.98-24.93 53.55-24.93 29.57 0 53.551 11.16 53.551 24.93 0 .25-.011.5-.03.75-.851 13.42-24.49 24.18-53.521 24.18-28.12 0-51.18-10.1-53.37-22.92z"/><path d="M669.19 601.36c-.131 13.71-24.061 24.81-53.551 24.81-29.58 0-53.55-11.16-53.55-24.92V170.92M669.19 169.63v431.73"/></g><path fill="none" d="M0 0h850.394v850.394H0z"/><path fill="none" stroke="#231f20" stroke-width="15.874" d="M456 694.999v42.599H182.677v-70.599M208.389 710.999v26M244.387 710.999v24M288.099 710.999v22M331.81 710.999v24M372.95 710.999v26M414.09 710.999v22"/><path fill="none" stroke="#231f20" stroke-width="11.597" stroke-linecap="round" stroke-linejoin="round" d="M143.623 702.523l40.229-35.524 40.221 35.587"/></svg>
